X:12
%%etbk:tnset id:5,pos:1,rep:3x,ant:
%%etbk:wsite http://www.thesession.org/tunes/display/2878
%%etbk:video src:ytube,cde:gLHToRYbAVg,desc:third tune
%%etbk:pldat 2016-04-12T16:23,2016-01-27T17:49,2015-11-25T16:11,2015-03-26T19:16,2015-03-05T18:58,2015-01-19T19:30,2014-12-29T17:25,2014-11-22T16:19,2014-11-19T17:06,2014-11-10T18:38,2014-09-15T18:51,2014-09-11T19:21,2014-09-08T18:04,2014-05-20T16:15,2014-05-09T18:14,2014-04-26T17:32,2014-04-07T19:01,2014-04-01T17:52,2014-03-21T17:01,2014-03-19T19:39,2014-02-05T15:39,2013-12-10T18:58,2013-11-19T16:09,2013-11-17T15:56,2013-11-16T14:24,2013-11-07T15:38,2013-10-04T17:35,2013-10-02T16:23,2013-05-15T16:31,2013-05-01T17:28
T: Road To Monalea, The
Z: Piano Box Version by Martin Fleischmann
H: Created 2013-02-19 /  Last Modified 2013-10-02
M: 4/4
L: 1/8
R: Reel
K: Ddor
"dm"!4!d!3!c!2!Ac !4!d3!5!e|!4!d!3!c!2!A!1!G !3!F!1!DD2 | "C"!3!c!2!A!2!G!2!A !3!cded|!3!c!2!A!1!G!2!E "dm"EDD2|
"dm"dcAc d3e|dcA!1!G !2!E!4!G!1!D!4!G| "am"!1!E!2!G!3!A!4!B !3!cded|cAGE "dm"EDD2:|
|:"dm"!3!dcAc d2!2!c!3!d|"am"!2!e!5!aag eg!1!d2|"C"!4!g!3!e!2!de !1!c3d|!3!e!4!gag "dm"!3!e!1!dd2|
"dm"!3!dcAc d2cd| "am"!2!eaag eg!1!d2| "C"!3!c!1!GGG !3!cded|!3!cAGE "dm"EDD2:|


